X: 14468
T: Gan Ainm
R: reel
M: 4/4
K: Dminor
ADDE F2 ED|ECCD EFGB|ADDE F2 ED|EAGE FD D2|
ADDE F2 ED|ECCD EFGB|ADDE F2 ED|EAGE D4:|
|:ABcB A2 GF|ECCD EFGB|ABcB A2 GF|EAGE D4|
ABcB A2 GF|ECCD EFGB|AFGE FEDC|A,G,A,D FEDC:|

